**kern	**kern
*staff2	*staff1
*clefF4	*clefG2
*k[b-e-a-]	*k[b-e-a-]
*M2/4	*M2/4
*E-:	*E-:
=-	=-
16BB-LL	(8dL 8b-
16AA	.
16BB-	8fJ)
16CJJ	.
16DLL	8dL 8f
16C	.
16D	8fJ 8a-
16BB-JJ	.
=54	=54
16E-LL	(4f 4a-
16D	.
16E-	.
16FJJ	.
16GLL	8e-) 8g
16F	.
16G	8bb-
16E-JJ	.
=55	=55
16B-LL	(8ddL 8bb-
16A	.
16B-	8ffJ)
16cJJ	.
16dLL	8ddL 8ff
16c	.
16d	8ffJ 8aa-
16B-JJ	.
=56	=56
16e-LL	(4ff 4aa-
16d	.
16e-	.
16B-JJ	.
16GLL	8ee-L) 8gg
16F	.
16G	8b-J
16E-JJ	.
=57	=57
*	*^
*	*	*^
16BB-LL	(8ee-	4.f	2a-
16C	.	.	.
16D	4dd	.	.
16E-JJ	.	.	.
16FLL	.	.	.
16GJ	.	.	.
8A-J	16ccLL	16e-LL	.
.	16b-JJ)	16dJJ	.
=58	=58	=58	=58
16BB-LL	(8ee-	4.f	2a-
16C	.	.	.
16D	4dd	.	.
16E-JJ	.	.	.
16FLL	.	.	.
16G	.	.	.
16A-	16ccLL	16e-LL	.
16B-JJ	16b-JJ)	16dJJ	.
*	*	*v	*v
=59	=59	=59
16GLL	(8ee-L	2e-
16F	.	.
16G	8b-J)	.
16E-JJ	.	.
16A-LL	(16ddLL	.
16G	16cc	.
16A-	16b-	.
16FJJ	16a-JJ)	.
*	*v	*v
=60	=60
16B-LL	(4e- 4g
16G	.
16E-	.
16GJJ	.
16B-LL	8dL) 8f
16BB-	.
16C	8b-J
16DJJ	.
=61	=61
16E-LL	(4f 4a-
16D	.
16E-	.
16DJJ	.
16E-LL	8e-L) 8g
16BB-	.
16GG	8b-J
16EE-JJ	.
=62	=62
*-	*-
